Newaita-dark/actions/32/user-group-new.svg

<svg height="32" viewBox="0 0 32 32" width="32" xmlns="http://www.w3.org/2000/svg"><g fill="#e0e0e0"><path d="m11.238281 8.851562c-2.5625 0-4.628906 2.0625-4.628906 4.628907 0 2.566406 2.066406 4.628906 4.628906 4.628906 2.566407 0 4.632813-2.0625 4.632813-4.628906 0-2.566407-2.066406-4.628907-4.632813-4.628907zm0 2.644532c1.101563 0 1.984375.886718 1.984375 1.984375 0 1.097656-.882812 1.984375-1.984375 1.984375-1.097656 0-1.984375-.886719-1.984375-1.984375 0-1.097657.886719-1.984375 1.984375-1.984375zm0 0"/><path d="m4.625 22.082031c-1.101562 0-1.984375.882813-1.984375 1.984375v3.304688c0 1.101562.882813 1.984375 1.984375 1.984375h13.230469c1.097656 0 1.984375-.882813 1.984375-1.984375v-3.304688c0-1.101562-.886719-1.984375-1.984375-1.984375h-.664063v3.96875c0 .363281-.292968.660157-.660156.660157h-10.582031c-.367188 0-.664063-.296876-.664063-.660157v-3.96875zm0 0"/><path d="m7.933594 18.777344c-.882813 0-1.949219.183594-2.972656.59375-.511719.203125-1.011719.460937-1.457032.875-.445312.410156-.859375 1.066406-.859375 1.835937v1.984375c-.003906.472656.242188.914063.65625 1.15625.410157.238282.914063.238282 1.324219 0 .410156-.242187.660156-.683594.65625-1.15625v-1.878906c.003906-.007812-.003906.003906.007812-.007812.09375-.085938.335938-.238282.652344-.363282.539063-.21875 1.269532-.351562 1.753906-.386718 2.589844 1.195312 5.050782 1.246093 7.1875.003906.480469.046875 1.15625.179687 1.65625.382812.316407.125.558594.277344.648438.363282.015625.011718.003906 0 .011719.007812v1.878906c-.007813.472656.242187.914063.652343 1.15625.410157.238282.917969.238282 1.328126 0 .410156-.242187.660156-.683594.652343-1.15625v-1.984375c0-.769531-.410156-1.425781-.855469-1.835937-.445312-.414063-.949218-.671875-1.460937-.875-1.023437-.410156-2.085937-.59375-2.96875-.59375-.257813 0-.515625.078125-.730469.222656-1.648437 1.097656-2.886718 1.125-5.296875-.082031-.179687-.089844-.382812-.140625-.585937-.140625zm0 0"/><path d="m20.5 2.894531c-2.566406 0-4.628906 2.066407-4.628906 4.632813s2.0625 4.628906 4.628906 4.628906 4.632812-2.0625 4.632812-4.628906-2.066406-4.632813-4.632812-4.632813zm0 2.648438c1.101562 0 1.984375.882812 1.984375 1.984375 0 1.097656-.882813 1.984375-1.984375 1.984375-1.097656 0-1.984375-.886719-1.984375-1.984375 0-1.101563.886719-1.984375 1.984375-1.984375zm0 0"/><path d="m23.808594 12.824219c-.261719 0-.515625.078125-.730469.222656-1.628906 1.085937-2.859375 1.121094-5.21875-.042969v2.84375c2.257813.816406 4.398437.726563 6.285156-.367187.480469.046875 1.15625.179687 1.65625.378906.3125.128906.558594.28125.648438.367187.003906 0 .003906.003907.003906.003907v3.863281c0 .367188-.292969.664062-.660156.664062h-3.960938v2.644532h5.285157c1.097656 0 1.984374-.882813 1.984374-1.984375v-3.308594c0-.050781-.003906-.105469-.007812-.15625v-1.828125c0-.769531-.410156-1.421875-.855469-1.835938-.449219-.410156-.949219-.667968-1.460937-.875-1.023438-.40625-2.085938-.589843-2.96875-.589843zm0 0"/></g></svg>

<?xml version="1.0" encoding="UTF-8"?>
<svg xmlns="http://www.w3.org/2000/svg" xmlns:xlink="http://www.w3.org/1999/xlink" width="32px" height="32px" viewBox="0 0 32 32" version="1.1">
<g id="surface1">
<path style=" stroke:none;fill-rule:nonzero;fill:rgb(87.843138%,87.843138%,87.843138%);fill-opacity:1;" d="M 11.238281 8.851562 C 8.675781 8.851562 6.609375 10.914062 6.609375 13.480469 C 6.609375 16.046875 8.675781 18.109375 11.238281 18.109375 C 13.804688 18.109375 15.871094 16.046875 15.871094 13.480469 C 15.871094 10.914062 13.804688 8.851562 11.238281 8.851562 Z M 11.238281 11.496094 C 12.339844 11.496094 13.222656 12.382812 13.222656 13.480469 C 13.222656 14.578125 12.339844 15.464844 11.238281 15.464844 C 10.140625 15.464844 9.253906 14.578125 9.253906 13.480469 C 9.253906 12.382812 10.140625 11.496094 11.238281 11.496094 Z M 11.238281 11.496094 "/>
<path style=" stroke:none;fill-rule:nonzero;fill:rgb(87.843138%,87.843138%,87.843138%);fill-opacity:1;" d="M 4.625 22.082031 C 3.523438 22.082031 2.640625 22.964844 2.640625 24.066406 L 2.640625 27.371094 C 2.640625 28.472656 3.523438 29.355469 4.625 29.355469 L 17.855469 29.355469 C 18.953125 29.355469 19.839844 28.472656 19.839844 27.371094 L 19.839844 24.066406 C 19.839844 22.964844 18.953125 22.082031 17.855469 22.082031 L 17.191406 22.082031 L 17.191406 26.050781 C 17.191406 26.414062 16.898438 26.710938 16.53125 26.710938 L 5.949219 26.710938 C 5.582031 26.710938 5.285156 26.414062 5.285156 26.050781 L 5.285156 22.082031 Z M 4.625 22.082031 "/>
<path style=" stroke:none;fill-rule:nonzero;fill:rgb(87.843138%,87.843138%,87.843138%);fill-opacity:1;" d="M 7.933594 18.777344 C 7.050781 18.777344 5.984375 18.960938 4.960938 19.371094 C 4.449219 19.574219 3.949219 19.832031 3.503906 20.246094 C 3.058594 20.65625 2.644531 21.3125 2.644531 22.082031 L 2.644531 24.066406 C 2.640625 24.539062 2.886719 24.980469 3.300781 25.222656 C 3.710938 25.460938 4.214844 25.460938 4.625 25.222656 C 5.035156 24.980469 5.285156 24.539062 5.28125 24.066406 L 5.28125 22.1875 C 5.285156 22.179688 5.277344 22.191406 5.289062 22.179688 C 5.382812 22.09375 5.625 21.941406 5.941406 21.816406 C 6.480469 21.597656 7.210938 21.464844 7.695312 21.429688 C 10.285156 22.625 12.746094 22.675781 14.882812 21.433594 C 15.363281 21.480469 16.039062 21.613281 16.539062 21.816406 C 16.855469 21.941406 17.097656 22.09375 17.1875 22.179688 C 17.203125 22.191406 17.191406 22.179688 17.199219 22.1875 L 17.199219 24.066406 C 17.191406 24.539062 17.441406 24.980469 17.851562 25.222656 C 18.261719 25.460938 18.769531 25.460938 19.179688 25.222656 C 19.589844 24.980469 19.839844 24.539062 19.832031 24.066406 L 19.832031 22.082031 C 19.832031 21.3125 19.421875 20.65625 18.976562 20.246094 C 18.53125 19.832031 18.027344 19.574219 17.515625 19.371094 C 16.492188 18.960938 15.429688 18.777344 14.546875 18.777344 C 14.289062 18.777344 14.03125 18.855469 13.816406 19 C 12.167969 20.097656 10.929688 20.125 8.519531 18.917969 C 8.339844 18.828125 8.136719 18.777344 7.933594 18.777344 Z M 7.933594 18.777344 "/>
<path style=" stroke:none;fill-rule:nonzero;fill:rgb(87.843138%,87.843138%,87.843138%);fill-opacity:1;" d="M 20.5 2.894531 C 17.933594 2.894531 15.871094 4.960938 15.871094 7.527344 C 15.871094 10.09375 17.933594 12.15625 20.5 12.15625 C 23.066406 12.15625 25.132812 10.09375 25.132812 7.527344 C 25.132812 4.960938 23.066406 2.894531 20.5 2.894531 Z M 20.5 5.542969 C 21.601562 5.542969 22.484375 6.425781 22.484375 7.527344 C 22.484375 8.625 21.601562 9.511719 20.5 9.511719 C 19.402344 9.511719 18.515625 8.625 18.515625 7.527344 C 18.515625 6.425781 19.402344 5.542969 20.5 5.542969 Z M 20.5 5.542969 "/>
<path style=" stroke:none;fill-rule:nonzero;fill:rgb(87.843138%,87.843138%,87.843138%);fill-opacity:1;" d="M 23.808594 12.824219 C 23.546875 12.824219 23.292969 12.902344 23.078125 13.046875 C 21.449219 14.132812 20.21875 14.167969 17.859375 13.003906 L 17.859375 15.847656 C 20.117188 16.664062 22.257812 16.574219 24.144531 15.480469 C 24.625 15.527344 25.300781 15.660156 25.800781 15.859375 C 26.113281 15.988281 26.359375 16.140625 26.449219 16.226562 C 26.453125 16.226562 26.453125 16.230469 26.453125 16.230469 L 26.453125 20.09375 C 26.453125 20.460938 26.160156 20.757812 25.792969 20.757812 L 21.832031 20.757812 L 21.832031 23.402344 L 27.117188 23.402344 C 28.214844 23.402344 29.101562 22.519531 29.101562 21.417969 L 29.101562 18.109375 C 29.101562 18.058594 29.097656 18.003906 29.09375 17.953125 L 29.09375 16.125 C 29.09375 15.355469 28.683594 14.703125 28.238281 14.289062 C 27.789062 13.878906 27.289062 13.621094 26.777344 13.414062 C 25.753906 13.007812 24.691406 12.824219 23.808594 12.824219 Z M 23.808594 12.824219 "/>
</g>
</svg>
